Newaita-dark/actions/symbolic/edit-paste-symbolic.svg

<svg height="16" viewBox="0 0 16 16" width="16" xmlns="http://www.w3.org/2000/svg"><g fill="#e0e0e0"><path d="m3.96875 4.09375v10.253906c0 .367188-.296875.660156-.660156.660156h-.664063c-.363281 0-.660156-.292968-.660156-.660156v-10.253906c0-.363281.296875-.660156.660156-.660156h.664063c.363281 0 .660156.296875.660156.660156zm0 0"/><path d="m8.929688 5.417969h-1.984376c-.546874 0-.992187-.445313-.992187-.992188v-2.316406c0-.546875.445313-.992187.992187-.992187h1.984376c.550781 0 .992187.445312.992187.992187v2.316406c0 .546875-.441406.992188-.992187.992188zm0 0"/><path d="m13.890625 4.09375v9.921875c0 .367187-.292969.664063-.660156.664063h-.660157c-.367187 0-.664062-.296876-.664062-.664063v-9.921875c0-.363281.296875-.660156.664062-.660156h.660157c.367187 0 .660156.296875.660156.660156zm0 0"/><path d="m13.230469 15.007812h-10.585938c-.363281 0-.660156-.292968-.660156-.660156v-.660156c0-.367188.296875-.664062.660156-.664062h10.585938c.367187 0 .660156.296874.660156.664062v.660156c0 .367188-.292969.660156-.660156.660156zm0 0"/><path d="m13.230469 5.417969h-10.585938c-.363281 0-.660156-.296875-.660156-.664063v-1.652344c0-.363281.296875-.660156.660156-.660156h10.585938c.367187 0 .660156.296875.660156.660156v1.652344c0 .367188-.292969.664063-.660156.664063zm0 0"/></g></svg>

<?xml version="1.0" encoding="UTF-8"?>
<svg xmlns="http://www.w3.org/2000/svg" xmlns:xlink="http://www.w3.org/1999/xlink" width="16px" height="16px" viewBox="0 0 16 16" version="1.1">
<g id="surface1">
<path style=" stroke:none;fill-rule:nonzero;fill:rgb(87.843138%,87.843138%,87.843138%);fill-opacity:1;" d="M 3.96875 4.09375 L 3.96875 14.347656 C 3.96875 14.714844 3.671875 15.007812 3.308594 15.007812 L 2.644531 15.007812 C 2.28125 15.007812 1.984375 14.714844 1.984375 14.347656 L 1.984375 4.09375 C 1.984375 3.730469 2.28125 3.433594 2.644531 3.433594 L 3.308594 3.433594 C 3.671875 3.433594 3.96875 3.730469 3.96875 4.09375 Z M 3.96875 4.09375 "/>
<path style=" stroke:none;fill-rule:nonzero;fill:rgb(87.843138%,87.843138%,87.843138%);fill-opacity:1;" d="M 8.929688 5.417969 L 6.945312 5.417969 C 6.398438 5.417969 5.953125 4.972656 5.953125 4.425781 L 5.953125 2.109375 C 5.953125 1.5625 6.398438 1.117188 6.945312 1.117188 L 8.929688 1.117188 C 9.480469 1.117188 9.921875 1.5625 9.921875 2.109375 L 9.921875 4.425781 C 9.921875 4.972656 9.480469 5.417969 8.929688 5.417969 Z M 8.929688 5.417969 "/>
<path style=" stroke:none;fill-rule:nonzero;fill:rgb(87.843138%,87.843138%,87.843138%);fill-opacity:1;" d="M 13.890625 4.09375 L 13.890625 14.015625 C 13.890625 14.382812 13.597656 14.679688 13.230469 14.679688 L 12.570312 14.679688 C 12.203125 14.679688 11.90625 14.382812 11.90625 14.015625 L 11.90625 4.09375 C 11.90625 3.730469 12.203125 3.433594 12.570312 3.433594 L 13.230469 3.433594 C 13.597656 3.433594 13.890625 3.730469 13.890625 4.09375 Z M 13.890625 4.09375 "/>
<path style=" stroke:none;fill-rule:nonzero;fill:rgb(87.843138%,87.843138%,87.843138%);fill-opacity:1;" d="M 13.230469 15.007812 L 2.644531 15.007812 C 2.28125 15.007812 1.984375 14.714844 1.984375 14.347656 L 1.984375 13.6875 C 1.984375 13.320312 2.28125 13.023438 2.644531 13.023438 L 13.230469 13.023438 C 13.597656 13.023438 13.890625 13.320312 13.890625 13.6875 L 13.890625 14.347656 C 13.890625 14.714844 13.597656 15.007812 13.230469 15.007812 Z M 13.230469 15.007812 "/>
<path style=" stroke:none;fill-rule:nonzero;fill:rgb(87.843138%,87.843138%,87.843138%);fill-opacity:1;" d="M 13.230469 5.417969 L 2.644531 5.417969 C 2.28125 5.417969 1.984375 5.121094 1.984375 4.753906 L 1.984375 3.101562 C 1.984375 2.738281 2.28125 2.441406 2.644531 2.441406 L 13.230469 2.441406 C 13.597656 2.441406 13.890625 2.738281 13.890625 3.101562 L 13.890625 4.753906 C 13.890625 5.121094 13.597656 5.417969 13.230469 5.417969 Z M 13.230469 5.417969 "/>
</g>
</svg>
